flaticon/gastronomy/aubergine.svg

<svg xmlns="http://www.w3.org/2000/svg" width="32" height="32" viewBox="0 0 24 24">
    <path d="M 23.164062 0.246094 C 23.078125 0.0429688 22.839844 -0.0546875 22.636719 0.03125 C 22.429688 0.117188 22.332031 0.355469 22.417969 0.558594 C 22.613281 1.019531 22.617188 1.390625 22.4375 1.664062 C 22.195312 2.023438 21.605469 2.253906 20.882812 2.277344 C 19.457031 1.355469 17.929688 1.421875 17.011719 2.425781 C 16.816406 2.363281 16.613281 2.34375 16.40625 2.375 C 16.066406 2.425781 15.773438 2.605469 15.582031 2.882812 C 15.261719 3.335938 15.304688 3.933594 15.632812 4.363281 C 15.066406 4.816406 14.492188 5.355469 13.933594 5.976562 C 13.902344 6.003906 10.71875 8.941406 6.300781 9.746094 C 5.765625 9.84375 5.34375 9.964844 4.972656 10.125 C 4.789062 10.203125 4.378906 10.417969 4.367188 10.421875 C 1.4375 12.046875 0.00390625 15.4375 0.882812 18.667969 C 1.667969 21.554688 4.101562 23.632812 7.074219 23.964844 C 7.300781 23.988281 7.53125 24 7.765625 24 C 8.800781 24 9.878906 23.75 10.917969 23.261719 C 13.738281 21.9375 18.785156 18.414062 20.917969 9.679688 C 20.96875 9.546875 21.191406 8.964844 21.386719 8.191406 C 21.769531 8.183594 22.140625 8 22.382812 7.65625 C 22.703125 7.195312 22.664062 6.589844 22.328125 6.15625 C 22.652344 5.546875 22.714844 4.882812 22.5 4.21875 C 22.355469 3.773438 22.09375 3.351562 21.730469 2.96875 C 22.34375 2.820312 22.832031 2.523438 23.105469 2.109375 C 23.339844 1.757812 23.542969 1.148438 23.164062 0.246094 Z M 20.160156 9.40625 L 20.140625 9.460938 C 18.089844 17.890625 13.269531 21.269531 10.574219 22.53125 C 9.441406 23.066406 8.261719 23.285156 7.164062 23.160156 C 4.519531 22.867188 2.359375 21.019531 1.660156 18.457031 C 0.878906 15.582031 2.152344 12.570312 4.75 11.132812 C 4.75 11.132812 5.128906 10.9375 5.296875 10.863281 C 5.609375 10.726562 5.964844 10.625 6.445312 10.539062 C 11.09375 9.691406 14.347656 6.691406 14.507812 6.539062 C 15.117188 5.867188 15.722656 5.300781 16.308594 4.851562 C 16.308594 4.851562 16.3125 4.851562 16.3125 4.851562 C 16.507812 4.925781 16.707031 4.964844 16.894531 4.953125 C 16.894531 4.957031 16.898438 4.964844 16.902344 4.972656 C 16.90625 4.984375 16.910156 4.996094 16.914062 5.007812 C 16.917969 5.023438 16.929688 5.042969 16.9375 5.0625 C 16.957031 5.109375 16.976562 5.15625 17.003906 5.203125 C 17.015625 5.230469 17.03125 5.253906 17.046875 5.277344 C 17.074219 5.320312 17.101562 5.363281 17.136719 5.40625 C 17.15625 5.4375 17.183594 5.464844 17.210938 5.492188 C 17.242188 5.527344 17.269531 5.5625 17.300781 5.59375 C 17.363281 5.652344 17.429688 5.707031 17.503906 5.757812 C 17.574219 5.808594 17.648438 5.851562 17.726562 5.890625 C 17.78125 5.917969 17.835938 5.941406 17.894531 5.960938 C 17.910156 5.96875 17.929688 5.976562 17.949219 5.984375 C 18.011719 6.003906 18.074219 6.019531 18.140625 6.03125 C 18.152344 6.035156 18.167969 6.039062 18.179688 6.039062 C 18.238281 6.050781 18.292969 6.054688 18.351562 6.054688 C 18.367188 6.054688 18.382812 6.058594 18.402344 6.058594 C 18.417969 6.058594 18.433594 6.058594 18.453125 6.058594 C 18.457031 6.058594 18.464844 6.058594 18.472656 6.058594 C 18.476562 6.074219 18.480469 6.085938 18.488281 6.101562 C 18.488281 6.105469 18.488281 6.109375 18.492188 6.113281 C 18.515625 6.1875 18.546875 6.257812 18.585938 6.328125 C 18.664062 6.464844 18.765625 6.59375 18.886719 6.707031 C 18.945312 6.765625 19.011719 6.816406 19.082031 6.867188 C 19.355469 7.058594 19.675781 7.167969 19.980469 7.167969 C 20.003906 7.167969 20.027344 7.164062 20.050781 7.164062 C 20.050781 7.167969 20.050781 7.171875 20.054688 7.175781 C 20.058594 7.191406 20.0625 7.207031 20.070312 7.222656 C 20.078125 7.242188 20.089844 7.261719 20.097656 7.285156 C 20.113281 7.324219 20.128906 7.367188 20.152344 7.40625 C 20.167969 7.4375 20.1875 7.464844 20.203125 7.492188 C 20.226562 7.53125 20.25 7.566406 20.277344 7.605469 C 20.300781 7.636719 20.328125 7.664062 20.355469 7.695312 C 20.382812 7.726562 20.40625 7.757812 20.4375 7.785156 C 20.476562 7.824219 20.519531 7.859375 20.5625 7.894531 C 20.582031 7.910156 20.597656 7.929688 20.617188 7.945312 C 20.410156 8.777344 20.160156 9.398438 20.160156 9.40625 Z M 21.484375 5.988281 C 21.355469 6.171875 21.402344 6.421875 21.582031 6.550781 C 21.800781 6.703125 21.863281 6.992188 21.722656 7.191406 C 21.578125 7.398438 21.332031 7.449219 21.128906 7.316406 L 21.121094 7.308594 C 21.058594 7.269531 21.011719 7.21875 20.964844 7.167969 C 20.957031 7.160156 20.945312 7.152344 20.9375 7.144531 C 20.894531 7.085938 20.859375 7.027344 20.835938 6.96875 C 20.828125 6.941406 20.820312 6.914062 20.816406 6.890625 C 20.8125 6.875 20.808594 6.859375 20.808594 6.847656 C 20.808594 6.8125 20.8125 6.785156 20.824219 6.761719 C 20.828125 6.761719 20.828125 6.757812 20.828125 6.757812 C 20.878906 6.6875 20.902344 6.605469 20.902344 6.527344 C 20.902344 6.398438 20.839844 6.273438 20.730469 6.195312 C 20.546875 6.070312 20.296875 6.113281 20.167969 6.296875 C 20.160156 6.308594 20.140625 6.316406 20.125 6.324219 C 20.117188 6.328125 20.109375 6.339844 20.097656 6.34375 C 20.066406 6.355469 20.027344 6.359375 19.984375 6.359375 C 19.835938 6.363281 19.6875 6.304688 19.546875 6.207031 C 19.40625 6.109375 19.296875 5.976562 19.253906 5.847656 C 19.238281 5.804688 19.230469 5.765625 19.230469 5.734375 C 19.230469 5.699219 19.238281 5.671875 19.25 5.652344 C 19.300781 5.582031 19.324219 5.5 19.324219 5.421875 C 19.324219 5.292969 19.265625 5.167969 19.152344 5.089844 C 18.96875 4.960938 18.71875 5.007812 18.589844 5.1875 C 18.574219 5.210938 18.546875 5.226562 18.511719 5.238281 C 18.5 5.242188 18.484375 5.242188 18.472656 5.246094 C 18.445312 5.25 18.414062 5.25 18.382812 5.25 C 18.332031 5.25 18.28125 5.238281 18.226562 5.222656 C 18.210938 5.21875 18.195312 5.21875 18.179688 5.210938 C 18.109375 5.183594 18.035156 5.148438 17.96875 5.101562 C 17.902344 5.054688 17.851562 5.007812 17.808594 4.957031 C 17.804688 4.949219 17.796875 4.945312 17.792969 4.941406 C 17.753906 4.894531 17.726562 4.847656 17.703125 4.800781 C 17.699219 4.792969 17.691406 4.78125 17.6875 4.769531 C 17.675781 4.738281 17.667969 4.707031 17.664062 4.679688 C 17.660156 4.664062 17.652344 4.648438 17.652344 4.636719 C 17.652344 4.597656 17.65625 4.566406 17.671875 4.546875 C 17.722656 4.476562 17.746094 4.394531 17.746094 4.316406 C 17.746094 4.1875 17.6875 4.0625 17.574219 3.984375 C 17.390625 3.855469 17.140625 3.902344 17.011719 4.082031 C 17.011719 4.085938 17.007812 4.085938 17.003906 4.089844 C 16.988281 4.105469 16.964844 4.121094 16.933594 4.132812 C 16.910156 4.140625 16.875 4.140625 16.84375 4.140625 C 16.832031 4.144531 16.820312 4.144531 16.808594 4.144531 C 16.769531 4.144531 16.722656 4.132812 16.679688 4.125 C 16.664062 4.121094 16.652344 4.117188 16.640625 4.113281 C 16.59375 4.101562 16.546875 4.078125 16.5 4.054688 C 16.460938 4.035156 16.425781 4.019531 16.390625 3.996094 C 16.386719 3.992188 16.382812 3.992188 16.378906 3.988281 C 16.164062 3.835938 16.101562 3.546875 16.242188 3.347656 C 16.308594 3.253906 16.410156 3.191406 16.527344 3.171875 C 16.652344 3.152344 16.78125 3.183594 16.890625 3.261719 C 16.976562 3.324219 17.085938 3.347656 17.191406 3.328125 C 17.296875 3.308594 17.390625 3.25 17.453125 3.164062 C 18.253906 2.019531 19.640625 2.382812 20.582031 3.042969 C 21.15625 3.449219 21.566406 3.953125 21.734375 4.46875 C 21.90625 5 21.820312 5.511719 21.484375 5.988281 Z M 21.484375 5.988281"/>
    <path d="M4.257812 14.925781C4.347656 14.722656 4.253906 14.484375 4.050781 14.394531 3.847656 14.304688 3.609375 14.398438 3.519531 14.605469 2.738281 16.40625 2.847656 18.503906 3.804688 20.078125 3.882812 20.203125 4.015625 20.269531 4.152344 20.269531 4.222656 20.269531 4.292969 20.253906 4.359375 20.210938 4.550781 20.097656 4.609375 19.847656 4.492188 19.660156 3.667969 18.304688 3.578125 16.488281 4.257812 14.925781zM6.183594 11.914062C5.503906 12.191406 4.882812 12.640625 4.386719 13.210938 4.242188 13.382812 4.261719 13.636719 4.429688 13.78125 4.503906 13.847656 4.597656 13.878906 4.691406 13.878906 4.804688 13.878906 4.917969 13.832031 4.996094 13.738281 5.410156 13.261719 5.921875 12.890625 6.488281 12.660156 6.695312 12.574219 6.792969 12.339844 6.710938 12.132812 6.625 11.925781 6.390625 11.828125 6.183594 11.914062zM6.183594 11.914062"/>
</svg>

<svg xmlns="http://www.w3.org/2000/svg" width="32" height="32" viewBox="0 0 24 24">
    <path d="M23.164.246a.405.405 0 0 0-.746.313c.195.46.2.832.02 1.105-.243.36-.833.59-1.555.613-1.426-.922-2.953-.855-3.871.149a1.321 1.321 0 0 0-.606-.051c-.34.05-.633.23-.824.508-.32.453-.277 1.05.05 1.48-.566.453-1.14.992-1.698 1.614-.032.027-3.215 2.964-7.633 3.77a6.034 6.034 0 0 0-1.328.378c-.184.078-.594.293-.606.297a7.238 7.238 0 0 0-3.484 8.246 7.21 7.21 0 0 0 6.191 5.297c.227.023.457.035.692.035 1.035 0 2.113-.25 3.152-.738 2.82-1.325 7.867-4.848 10-13.582.05-.133.273-.715.469-1.489.383-.007.754-.191.996-.535.32-.46.281-1.066-.055-1.5A2.43 2.43 0 0 0 22.5 4.22a3.317 3.317 0 0 0-.77-1.25c.614-.149 1.102-.446 1.375-.86.235-.351.438-.96.06-1.863zm-3.004 9.16l-.02.055c-2.05 8.43-6.87 11.809-9.566 13.07-1.133.535-2.312.754-3.41.63a6.405 6.405 0 0 1-5.504-4.704 6.425 6.425 0 0 1 3.09-7.324s.379-.195.547-.27c.312-.136.668-.238 1.148-.324 4.649-.848 7.903-3.848 8.063-4a13.854 13.854 0 0 1 1.8-1.687h.005c.195.074.394.113.582.101a1447.613 1447.613 0 0 0 .02.055c.003.015.015.035.022.054.02.047.04.094.067.141.012.027.027.05.043.074.027.043.055.086.09.13a.51.51 0 0 0 .074.085c.031.035.059.07.09.102.062.058.129.113.203.164a1.595 1.595 0 0 0 .39.203c.016.008.036.016.055.023a1.521 1.521 0 0 0 .23.055.853.853 0 0 0 .173.016c.015 0 .03.004.05.004h.071a.19.19 0 0 0 .015.043 1.156 1.156 0 0 0 .098.227c.078.136.18.265.3.378.06.059.126.11.196.16.273.192.594.301.898.301.024 0 .047-.004.07-.004 0 .004 0 .008.005.012a.22.22 0 0 0 .015.047c.008.02.02.039.028.062.015.04.03.082.054.121.016.032.035.059.051.086.024.04.047.074.074.113.024.032.051.06.078.09.028.032.051.063.082.09.04.04.083.074.125.11.02.015.036.035.055.05-.207.832-.457 1.453-.457 1.461zm1.324-3.418a.405.405 0 0 0 .098.563c.219.152.281.441.14.64-.144.207-.39.258-.593.125l-.008-.007c-.062-.04-.11-.09-.156-.141l-.027-.023a.814.814 0 0 1-.102-.176c-.008-.028-.016-.055-.02-.078-.003-.016-.007-.032-.007-.043 0-.035.003-.063.015-.086.004 0 .004-.004.004-.004a.394.394 0 0 0 .074-.23.41.41 0 0 0-.172-.333.406.406 0 0 0-.562.102c-.008.012-.027.02-.043.027-.008.004-.016.016-.027.02a.331.331 0 0 1-.114.015.744.744 0 0 1-.437-.152.766.766 0 0 1-.293-.36.344.344 0 0 1-.024-.113c0-.035.008-.062.02-.082a.4.4 0 0 0-.098-.563.405.405 0 0 0-.562.099c-.016.023-.043.039-.078.05-.012.004-.028.004-.04.008-.027.004-.058.004-.09.004a.572.572 0 0 1-.155-.027c-.016-.004-.032-.004-.047-.012a.987.987 0 0 1-.211-.11.835.835 0 0 1-.16-.144c-.004-.008-.012-.012-.016-.016a.706.706 0 0 1-.09-.14c-.004-.008-.012-.02-.015-.031a.438.438 0 0 1-.024-.09c-.004-.016-.012-.032-.012-.043 0-.04.004-.07.02-.09a.4.4 0 0 0-.098-.563.405.405 0 0 0-.562.098c0 .004-.004.004-.008.008a.197.197 0 0 1-.07.043c-.024.008-.059.008-.09.008-.012.004-.024.004-.035.004-.04 0-.086-.012-.13-.02a.491.491 0 0 1-.038-.012c-.047-.011-.094-.035-.141-.058-.04-.02-.074-.035-.11-.059-.003-.004-.007-.004-.011-.008-.215-.152-.277-.441-.137-.64a.433.433 0 0 1 .285-.176.492.492 0 0 1 .364.09.39.39 0 0 0 .3.066c.106-.02.2-.078.262-.164.8-1.144 2.188-.781 3.129-.121.574.406.984.91 1.152 1.426.172.531.086 1.043-.25 1.52zm0 0"/>
    <path d="M4.258 14.926a.402.402 0 1 0-.738-.32c-.782 1.8-.672 3.898.285 5.472a.407.407 0 0 0 .554.133.397.397 0 0 0 .133-.55c-.824-1.356-.914-3.173-.234-4.735zm0 0M6.184 11.914c-.68.277-1.301.727-1.797 1.297a.406.406 0 0 0 .304.668.395.395 0 0 0 .305-.14 3.967 3.967 0 0 1 1.492-1.079.402.402 0 1 0-.305-.746zm0 0"/>
</svg>
